assets/build/img/wait.svg

<svg width="19" height="19" viewBox="0 0 19 19" fill="none" xmlns="http://www.w3.org/2000/svg">
<path d="M16.2632 0H11.875H7.125H2.73678C1.22787 0 0 1.22787 0 2.73678V16.2632C0 17.7721 1.22787 19 2.73678 19H7.125C7.562 19 7.91665 18.6453 7.91665 18.2083C7.91665 17.7713 7.562 17.4167 7.125 17.4167H2.73678C2.10106 17.4167 1.58331 16.8989 1.58331 16.2632V2.73678C1.58331 2.10106 2.10106 1.58331 2.73678 1.58331H6.33331V5.54165C6.33331 5.83378 6.49403 6.10215 6.75131 6.2399C7.00859 6.37687 7.32053 6.36181 7.56434 6.20031L9.5 4.9099L11.4356 6.20031C11.5686 6.28896 11.7214 6.33331 11.875 6.33331C12.0033 6.33331 12.1315 6.30243 12.2487 6.2399C12.5059 6.10215 12.6667 5.83378 12.6667 5.54165V1.58335H16.2632C16.8989 1.58335 17.4167 2.1011 17.4167 2.73682V5.54169C17.4167 5.97869 17.7713 6.33335 18.2083 6.33335C18.6453 6.33335 19 5.97865 19 5.54165V2.73678C19 1.22787 17.7721 0 16.2632 0Z" fill="#00642F"/>
<path d="M13.4583 7.91699C10.4025 7.91699 7.91669 10.4028 7.91669 13.4586C7.91669 16.5145 10.4025 19.0003 13.4583 19.0003C16.5142 19.0003 19 16.5145 19 13.4587C19 10.4029 16.5142 7.91699 13.4583 7.91699ZM15.8334 14.2503H13.4583C13.0213 14.2503 12.6667 13.8957 12.6667 13.4587V11.0837C12.6667 10.6467 13.0213 10.292 13.4583 10.292C13.8954 10.292 14.25 10.6467 14.25 11.0837V12.667H15.8334C16.2704 12.667 16.625 13.0217 16.625 13.4587C16.625 13.8957 16.2704 14.2503 15.8334 14.2503Z" fill="#00642F"/>
</svg>

<svg width="19" height="19" viewBox="0 0 19 19" fill="none" xmlns="http://www.w3.org/2000/svg"><path d="M16.263 0H2.737A2.74 2.74 0 000 2.737v13.526A2.74 2.74 0 002.737 19h4.388a.792.792 0 000-1.583H2.737a1.155 1.155 0 01-1.154-1.154V2.737c0-.636.518-1.154 1.154-1.154h3.596v3.959a.792.792 0 001.231.658L9.5 4.91l1.936 1.29a.79.79 0 001.23-.658V1.583h3.597c.636 0 1.154.518 1.154 1.154v2.805a.792.792 0 001.583 0V2.737A2.74 2.74 0 0016.263 0z" fill="#00642F"/><path d="M13.458 7.917a5.548 5.548 0 00-5.541 5.542A5.548 5.548 0 0013.458 19 5.548 5.548 0 0019 13.46a5.548 5.548 0 00-5.542-5.542zm2.375 6.333h-2.375a.792.792 0 01-.791-.791v-2.375a.792.792 0 011.583 0v1.583h1.583a.792.792 0 010 1.583z" fill="#00642F"/></svg>
